app/javascript/components/Pages/Index/Images/Studs.svg

<svg width="270" height="180" viewBox="0 0 270 180" fill="none" xmlns="http://www.w3.org/2000/svg">
<rect width="270" height="180" fill="white"/>
<g clip-path="url(#clip0)">
<path d="M45 161.348C54.1276 161.348 61.527 160.203 61.527 158.791C61.527 157.379 54.1276 156.234 45 156.234C35.8724 156.234 28.473 157.379 28.473 158.791C28.473 160.203 35.8724 161.348 45 161.348Z" fill="#3F3D56"/>
<path d="M162.209 169.7C208.794 169.7 246.559 131.935 246.559 85.35C246.559 38.7648 208.794 1 162.209 1C115.624 1 77.859 38.7648 77.859 85.35C77.859 131.935 115.624 169.7 162.209 169.7Z" fill="#2F53EB" fill-opacity="0.08"/>
<path d="M54.561 145.144C52.451 152.944 45.225 157.773 45.225 157.773C45.225 157.773 41.419 149.959 43.525 142.16C45.631 134.361 52.861 129.531 52.861 129.531C52.861 129.531 56.67 137.345 54.561 145.144Z" fill="#2F53EB"/>
<path d="M35.369 145.144C37.479 152.944 44.705 157.773 44.705 157.773C44.705 157.773 48.511 149.959 46.405 142.16C44.299 134.361 37.069 129.531 37.069 129.531C37.069 129.531 33.259 137.345 35.369 145.144Z" fill="#2F53EB"/>
<path d="M38.469 143.468C44.258 149.103 44.969 157.768 44.969 157.768C44.969 157.768 36.29 157.294 30.501 151.659C24.712 146.024 24.001 137.359 24.001 137.359C24.001 137.359 32.68 137.832 38.469 143.468Z" fill="#3F3D56"/>
<path d="M51.461 143.468C45.672 149.103 44.961 157.768 44.961 157.768C44.961 157.768 53.64 157.294 59.429 151.659C65.218 146.024 65.929 137.359 65.929 137.359C65.929 137.359 57.25 137.832 51.461 143.468Z" fill="#3F3D56"/>
<path d="M127.304 178.847C161.152 178.847 188.591 174.601 188.591 169.363C188.591 164.125 161.152 159.879 127.304 159.879C93.4562 159.879 66.017 164.125 66.017 169.363C66.017 174.601 93.4562 178.847 127.304 178.847Z" fill="#3F3D56"/>
<path d="M156.558 48.2921C158.872 48.2921 160.747 46.4166 160.747 44.1031C160.747 41.7895 158.872 39.9141 156.558 39.9141C154.244 39.9141 152.369 41.7895 152.369 44.1031C152.369 46.4166 154.244 48.2921 156.558 48.2921Z" fill="#2F2E41"/>
<path d="M152.07 42.3079C152.07 41.2749 152.452 40.2785 153.142 39.5099C153.832 38.7413 154.782 38.2549 155.809 38.1439C155.224 38.0797 154.632 38.1395 154.071 38.3195C153.511 38.4995 152.995 38.7956 152.556 39.1884C152.118 39.5813 151.767 40.0622 151.527 40.5997C151.287 41.1372 151.163 41.7192 151.163 42.3079C151.163 42.8965 151.287 43.4786 151.527 44.0161C151.767 44.5536 152.118 45.0345 152.556 45.4273C152.995 45.8202 153.511 46.1163 154.071 46.2963C154.632 46.4763 155.224 46.5361 155.809 46.4719C154.782 46.3609 153.832 45.8744 153.142 45.1059C152.452 44.3373 152.07 43.3408 152.07 42.3079V42.3079Z" fill="#2F2E41"/>
<path d="M152.369 44.103C152.369 44.103 151.718 47.095 155.784 48.292Z" fill="#2F53EB"/>
<path d="M158.291 72.5559C166.058 72.5559 172.354 66.2597 172.354 58.4929C172.354 50.7262 166.058 44.4299 158.291 44.4299C150.524 44.4299 144.228 50.7262 144.228 58.4929C144.228 66.2597 150.524 72.5559 158.291 72.5559Z" fill="#2F2E41"/>
<path d="M144.713 102.358L144.213 112.929L168.376 120.983C168.376 120.983 167.117 107.643 167.876 106.383L144.713 102.358Z" fill="#FFB9B9"/>
<path d="M105.448 149.424L103.183 158.233H113.754V149.424H105.448Z" fill="#FFB9B9"/>
<path d="M160.316 151.766L165.098 153.451L167.615 147.131L163.336 143.76L160.316 151.766Z" fill="#A0616A"/>
<path d="M168.792 140.797C168.792 140.797 175.923 139.86 175.923 145.897C175.923 151.934 176.93 166.788 166.862 165.026C166.862 165.026 162.332 165.526 164.093 160.244C164.093 160.244 165.887 158.094 165.241 156.778C164.595 155.462 160.821 154.455 161.324 153.7C161.827 152.945 167.365 146.9 167.365 146.9L168.792 140.797Z" fill="#2F2E41"/>
<path d="M168.875 119.725L144.209 111.168L142.699 117.209C142.699 117.209 105.699 95.815 103.435 110.409C102.271 119.548 102.61 128.816 104.439 137.846L104.691 150.431C104.691 150.431 110.983 151.941 114.004 150.683L114.256 137.092C114.256 137.092 116.773 128.283 115.514 121.492C115.514 121.492 134.391 136.342 142.948 138.104C142.948 138.104 112.997 161.26 116.52 168.559C120.043 175.858 124.32 177.116 129.86 175.859C133.676 174.992 150.76 161.215 161.012 152.734C164.526 149.855 167.317 146.192 169.16 142.04C171.002 137.887 171.846 133.361 171.624 128.823C171.581 125.592 170.628 122.439 168.875 119.725V119.725Z" fill="#2F2E41"/>
<path d="M104.945 154.962C104.945 154.962 104.693 151.942 103.183 153.2C101.673 154.458 96.383 159.241 96.383 159.241C96.383 159.241 77.254 164.275 88.832 169.057C94.1181 169.851 99.5209 169.153 104.432 167.043C104.432 167.043 117.296 167.412 117.032 164.207C116.768 161.002 113.746 155.65 113.746 155.65C113.746 155.65 110.222 158.233 106.195 154.71L104.945 154.962Z" fill="#2F2E41"/>
<path d="M154.781 73.4141C159.924 73.4141 164.094 69.2445 164.094 64.1011C164.094 58.9577 159.924 54.7881 154.781 54.7881C149.638 54.7881 145.468 58.9577 145.468 64.1011C145.468 69.2445 149.638 73.4141 154.781 73.4141Z" fill="#FFB9B9"/>
<path d="M162.331 64.604C162.331 64.604 163.841 72.155 166.61 73.917L151.257 92.039L145.468 86.502L149.747 78.951C149.747 78.951 154.529 76.182 153.019 72.407L162.331 64.604Z" fill="#FFB9B9"/>
<path d="M167.868 74.6719C167.868 74.6719 178.943 76.9369 180.201 84.2359C181.459 91.5349 178.943 104.875 178.943 104.875L173.657 144.139C173.657 144.139 173.405 160.751 166.857 157.982C160.309 155.213 168.619 142.629 168.619 142.629L170.884 117.963C170.884 117.963 171.891 97.0719 169.877 94.5559L161.823 92.0389C161.823 92.0389 163.589 75.4269 167.868 74.6719Z" fill="#FFB9B9"/>
<path d="M149.746 78.95C149.746 78.95 142.195 78.698 137.413 84.739C132.631 90.78 121.053 95.31 121.053 95.31L92.108 106.636C92.108 106.636 86.822 97.323 83.55 100.595C80.278 103.867 89.592 112.172 93.87 111.172C98.148 110.172 124.07 102.363 124.07 102.363L144.709 93.05L149.746 78.95Z" fill="#FFB9B9"/>
<path d="M166.219 73.3159C166.219 73.3159 156.541 86.2489 152.263 85.9969C147.985 85.7449 150.863 78.0969 150.863 78.0969L147.843 78.8519C147.843 78.8519 143.703 86.7519 143.199 87.2519C143.199 87.2519 137.158 97.0679 143.954 99.3329L144.206 104.619C144.206 104.619 161.069 103.864 168.368 107.639L169.878 94.5509C169.878 94.5509 160.314 89.7689 165.599 80.4559C165.599 80.4559 167.474 75.5769 169.488 75.0739L166.219 73.3159Z" fill="#2F53EB"/>
<path opacity="0.1" d="M168.749 142.503L130.24 170.693C130.24 170.693 169.001 147.788 168.749 142.503Z" fill="black"/>
<path d="M155.286 53.1689C150.329 53.1689 146.31 55.5129 146.31 58.4049C146.361 59.1024 146.583 59.7765 146.956 60.3677C147.33 60.959 147.843 61.4491 148.451 61.795L150.179 60.5429L149.709 62.5049C149.904 62.5949 150.103 62.6829 150.309 62.7639L152.89 59.752V63.4519C153.682 63.5789 154.482 63.6424 155.284 63.6419C160.241 63.6419 164.26 61.2979 164.26 58.4059C164.26 55.5139 160.243 53.1689 155.286 53.1689Z" fill="#2F2E41"/>
<path d="M173.673 54.836C175.987 54.836 177.862 52.9605 177.862 50.647C177.862 48.3335 175.987 46.458 173.673 46.458C171.359 46.458 169.484 48.3335 169.484 50.647C169.484 52.9605 171.359 54.836 173.673 54.836Z" fill="#2F2E41"/>
<path d="M169.185 48.8521C169.185 47.819 169.567 46.8224 170.258 46.0538C170.948 45.2852 171.898 44.7988 172.925 44.6881C172.34 44.6239 171.748 44.6837 171.187 44.8637C170.627 45.0437 170.111 45.3397 169.672 45.7326C169.234 46.1255 168.883 46.6064 168.643 47.1439C168.403 47.6814 168.279 48.2634 168.279 48.8521C168.279 49.4407 168.403 50.0228 168.643 50.5603C168.883 51.0978 169.234 51.5786 169.672 51.9715C170.111 52.3644 170.627 52.6605 171.187 52.8405C171.748 53.0205 172.34 53.0803 172.925 53.0161C171.898 52.9054 170.948 52.419 170.258 51.6504C169.567 50.8818 169.185 49.8852 169.185 48.8521V48.8521Z" fill="#2F2E41"/>
<path d="M169.484 50.647C169.484 50.647 168.833 53.639 172.899 54.836Z" fill="#2F53EB"/>
<path d="M164.47 64.981C164.872 64.981 165.197 64.2485 165.197 63.345C165.197 62.4414 164.872 61.709 164.47 61.709C164.069 61.709 163.743 62.4414 163.743 63.345C163.743 64.2485 164.069 64.981 164.47 64.981Z" fill="#A0616A"/>
<path d="M84.221 69.6789L73.185 72.3529L73.149 72.3619L71.949 73.4479L71.604 73.7599L70.864 73.6259L69.554 73.3889L70.467 70.3069L70.638 64.4279L70.01 60.8279L73.492 58.4279C73.492 58.4279 80.282 58.0309 84.221 69.6789Z" fill="#D0CDE1"/>
<path opacity="0.1" d="M73.184 72.3481C73.034 72.6671 73.348 72.4561 73.177 72.7851L71.577 73.2991L70.861 73.6221L69.551 73.3851L70.464 70.3031L70.635 64.4241L70.007 60.8241L73.489 58.4241C73.489 58.4241 77.227 63.7231 73.184 72.3481Z" fill="black"/>
<path d="M97.233 61.2271C97.233 61.2271 82.733 67.9621 76.858 68.9891C70.983 70.0161 71.493 75.8951 71.493 75.8951L104.425 70.7581C104.425 70.7581 103.285 65.4511 97.233 61.2271Z" fill="#D0CDE1"/>
<path d="M69.267 60.086C70.7659 64.5472 70.6652 69.3911 68.982 73.786L72.235 75.27L73.491 73.786L73.52 73.643L70.067 73.329C70.067 73.329 72.921 65.681 70.581 60.373C70.58 60.372 70.066 59.23 69.267 60.086Z" fill="#2F53EB"/>
<path d="M117.152 105.346C104.31 102.492 92.352 108.399 92.352 108.399L92.319 108.37L87.557 104.119L68.953 73.7559L73.49 73.785C86.103 66.251 103.853 67.2789 103.853 67.2789C111.503 75.9529 117.152 105.346 117.152 105.346Z" fill="#2F53EB"/>
<path opacity="0.1" d="M92.321 108.37L87.559 104.119L68.953 73.7549L73.49 73.7839C73.49 73.7839 91.575 97.6689 92.321 108.37Z" fill="black"/>
<path d="M97.1655 88.889L96.6299 87.8379C96.2323 88.0407 95.815 88.2026 95.3848 88.3217C94.9675 88.4367 94.54 88.5105 94.1083 88.5414C93.6837 88.5714 93.2574 88.5606 92.8349 88.509C92.4167 88.4582 92.004 88.3675 91.6028 88.2387C91.2023 88.1069 90.8152 87.9373 90.4468 87.7322C90.0741 87.5263 89.7226 87.2848 89.3969 87.0106C89.0657 86.7319 88.7628 86.4209 88.4929 86.0825C88.215 85.7336 87.9732 85.3579 87.7708 84.9604C87.568 84.5628 87.4058 84.1456 87.2868 83.7154C87.1716 83.2978 87.0979 82.8697 87.0668 82.4377C87.0367 82.0133 87.0481 81.5872 87.1006 81.165C87.151 80.7464 87.2413 80.3335 87.3703 79.9321C87.5019 79.5318 87.6711 79.1446 87.8757 78.7763C88.0822 78.4041 88.324 78.0528 88.598 77.7271C88.8766 77.3959 89.1875 77.0933 89.526 76.8235C89.8752 76.5455 90.2515 76.3031 90.6492 76.1005C91.0469 75.8977 91.464 75.7359 91.8942 75.6168C92.3114 75.5016 92.739 75.4279 93.1707 75.3972C93.5952 75.3669 94.0216 75.3778 94.444 75.4295C94.8623 75.4804 95.275 75.5711 95.6762 75.6999C96.0767 75.8315 96.4639 76.0011 96.8322 76.2063C97.2046 76.4121 97.556 76.6533 97.8817 76.9271C98.2129 77.2062 98.5159 77.5175 98.786 77.856C99.0641 78.2052 99.3063 78.5816 99.5089 78.9794C99.6795 79.3161 99.8207 79.667 99.9309 80.0281C100.042 80.3863 100.122 80.7532 100.17 81.125C100.218 81.4966 100.235 81.8716 100.219 82.2459C100.203 82.6228 100.155 82.9978 100.075 83.3665C99.8874 84.3593 99.5587 85.32 99.0994 86.2201C98.8492 86.713 98.5611 87.1857 98.2374 87.6338C97.9138 88.0813 97.5554 88.5029 97.1656 88.894L97.1655 88.889ZM91.8301 78.4449C91.592 78.5658 91.367 78.7107 91.1582 78.8772C90.9558 79.0389 90.7701 79.2203 90.6037 79.4189C90.4399 79.6142 90.2956 79.8252 90.1726 80.0485C90.0504 80.2699 89.9494 80.5024 89.8711 80.743C89.7932 80.9839 89.7381 81.2318 89.7071 81.4831C89.676 81.7363 89.6693 81.9917 89.6873 82.2461C89.7058 82.5047 89.7499 82.761 89.8189 83.011C89.8906 83.2699 89.9884 83.5207 90.1109 83.7598C90.2324 83.9995 90.378 84.2265 90.5454 84.4367C90.7071 84.6393 90.8882 84.8252 91.0866 84.9922C91.2818 85.1563 91.4924 85.3011 91.7155 85.4247C91.9371 85.5473 92.1699 85.6485 92.4107 85.727C92.6514 85.8054 92.8992 85.8611 93.1505 85.8926C93.4033 85.9238 93.6584 85.9304 93.9125 85.9126C94.1709 85.8945 94.4269 85.8508 94.6767 85.7824C94.9342 85.7114 95.1837 85.6148 95.4218 85.4937C95.6613 85.3719 95.8878 85.226 96.0978 85.0583C96.3011 84.8962 96.4879 84.7142 96.6551 84.5151C96.8199 84.3192 96.9651 84.108 97.0886 83.8838C97.2114 83.6615 97.3124 83.4277 97.3908 83.1862C97.4688 82.9453 97.5239 82.6974 97.5548 82.4461C97.5859 82.1932 97.5927 81.938 97.575 81.6839C97.5565 81.4253 97.5126 81.1694 97.4436 80.9195C97.3721 80.6626 97.2746 80.4133 97.1532 80.1759C97.0317 79.9362 96.8864 79.7097 96.719 79.4995C96.5571 79.2968 96.3752 79.1107 96.1765 78.944C95.981 78.78 95.7701 78.6353 95.5467 78.512C95.3248 78.3894 95.0919 78.2882 94.8508 78.21C94.6099 78.1321 94.3621 78.0773 94.1108 78.0462C93.8576 78.0146 93.6018 78.008 93.3472 78.0259C93.0882 78.0441 92.8315 78.0876 92.5811 78.1565C92.3205 78.2275 92.0678 78.325 91.8271 78.4476L91.8301 78.4449ZM95.1957 85.05L95.0404 84.9652C94.4998 84.6742 94.0083 84.3002 93.5835 83.8569L93.468 83.7382L95.1501 82.8811L95.1802 83.0434C95.2895 83.6475 95.3029 84.2652 95.2203 84.8736L95.1976 85.049L95.1957 85.05ZM94.4099 85.2695L94.0973 85.317C93.2891 85.4312 92.4665 85.2498 91.7811 84.8066L91.6005 84.6898L92.9485 84.0029L93.0135 84.0756C93.3485 84.4605 93.7303 84.802 94.15 85.0923L94.4071 85.271L94.4099 85.2695ZM96.0388 84.3343L95.8365 84.4374L95.8426 84.2288C95.8521 83.7187 95.8 83.2095 95.6878 82.7118L95.6691 82.6156L97.0172 81.9287L97.0055 82.1434C96.9598 82.9582 96.6233 83.7298 96.057 84.3173L96.0423 84.3325L96.0388 84.3343ZM96.9451 81.3292L95.5071 82.0619L95.4582 81.9284C95.3688 81.6762 95.2645 81.4298 95.1458 81.19C95.0215 80.953 94.8835 80.7237 94.732 80.5032L94.6527 80.3852L96.0908 79.6524L96.1558 79.7245C96.3451 79.9387 96.5073 80.1754 96.6391 80.4291C96.7665 80.6842 96.8623 80.9541 96.9241 81.2325L96.9443 81.3274L96.9451 81.3292ZM94.9922 82.3243L93.1023 83.2872L93.0409 83.1996C92.8784 82.9733 92.7321 82.7358 92.6033 82.4887V82.4887C92.4792 82.2394 92.373 81.9814 92.2854 81.7169L92.2523 81.6149L94.1396 80.6532L94.201 80.7409C94.3635 80.9671 94.5098 81.2046 94.6385 81.4517C94.7628 81.7011 94.869 81.9591 94.9565 82.2235L94.9913 82.3247L94.9922 82.3243ZM92.5926 83.5469L91.1545 84.2797L91.0898 84.2075C90.902 83.9922 90.7402 83.7554 90.6079 83.5022C90.4789 83.2479 90.3826 82.9781 90.3214 82.6996L90.301 82.6047L91.7391 81.872L91.7882 82.0053C91.8773 82.2577 91.9814 82.5042 92.1004 82.7439C92.2243 82.9811 92.3628 83.2107 92.5146 83.431L92.5935 83.5487L92.5926 83.5469ZM95.6433 79.2475L94.2951 79.9345L94.2301 79.8618C93.8951 79.4773 93.5135 79.1361 93.0941 78.846L92.8339 78.6656L93.1463 78.6182C93.3472 78.5905 93.5504 78.5806 93.7531 78.5885C93.9549 78.596 94.1558 78.6217 94.3531 78.6647C94.5494 78.7079 94.7414 78.7685 94.9268 78.8459C95.115 78.9249 95.2957 79.0206 95.4667 79.132L95.6473 79.2488L95.6433 79.2475ZM93.7802 80.1968L92.098 81.0539L92.068 80.8917C91.9587 80.2875 91.945 79.67 92.0276 79.0616L92.0505 78.8861L92.206 78.9707C92.7465 79.2619 93.238 79.6358 93.6629 80.079L93.7765 80.1987L93.7802 80.1968ZM91.5829 81.3164L90.2349 82.0033L90.2448 81.7894C90.2888 80.9743 90.6258 80.2026 91.1935 79.616L91.4154 79.3906L91.4088 79.7035C91.3993 80.2133 91.451 80.7223 91.563 81.2197L91.5833 81.3151L91.5829 81.3164Z" fill="white"/>
</g>
<defs>
<clipPath id="clip0">
<rect x="24" y="1" width="222.558" height="177.846" fill="white"/>
</clipPath>
</defs>
</svg>

<svg viewBox="0 0 270 180" fill="none" xmlns="http://www.w3.org/2000/svg">
  <path fill="#fff" d="M0 0h270v180H0z"/>
  <g clip-path="url(#clip0)">
    <path d="M45 161.348c9.128 0 16.527-1.145 16.527-2.557s-7.4-2.557-16.527-2.557c-9.128 0-16.527 1.145-16.527 2.557s7.4 2.557 16.527 2.557z" fill="#3F3D56"/>
    <path d="M162.209 169.7c46.585 0 84.35-37.765 84.35-84.35 0-46.585-37.765-84.35-84.35-84.35-46.585 0-84.35 37.765-84.35 84.35 0 46.585 37.765 84.35 84.35 84.35z" fill="#2F53EB" fill-opacity=".08"/>
    <path d="M54.561 145.144c-2.11 7.8-9.336 12.629-9.336 12.629s-3.806-7.814-1.7-15.613c2.106-7.799 9.336-12.629 9.336-12.629s3.809 7.814 1.7 15.613z" fill="#2F53EB"/>
    <path d="M35.369 145.144c2.11 7.8 9.336 12.629 9.336 12.629s3.806-7.814 1.7-15.613c-2.106-7.799-9.336-12.629-9.336-12.629s-3.81 7.814-1.7 15.613z" fill="#2F53EB"/>
    <path d="M38.469 143.468c5.789 5.635 6.5 14.3 6.5 14.3s-8.679-.474-14.468-6.109-6.5-14.3-6.5-14.3 8.679.473 14.468 6.109z" fill="#3F3D56"/>
    <path d="M51.461 143.468c-5.789 5.635-6.5 14.3-6.5 14.3s8.679-.474 14.468-6.109 6.5-14.3 6.5-14.3-8.679.473-14.468 6.109zM127.304 178.847c33.848 0 61.287-4.246 61.287-9.484 0-5.238-27.439-9.484-61.287-9.484s-61.287 4.246-61.287 9.484c0 5.238 27.44 9.484 61.287 9.484z" fill="#3F3D56"/>
    <path d="M156.558 48.292a4.189 4.189 0 100-8.377 4.189 4.189 0 000 8.377z" fill="#2F2E41"/>
    <path d="M152.07 42.308a4.189 4.189 0 013.739-4.164 4.191 4.191 0 00-4.646 4.164 4.19 4.19 0 004.646 4.164 4.19 4.19 0 01-3.739-4.164z" fill="#2F2E41"/>
    <path d="M152.369 44.103s-.651 2.992 3.415 4.189z" fill="#2F53EB"/>
    <path d="M158.291 72.556c7.767 0 14.063-6.296 14.063-14.063s-6.296-14.063-14.063-14.063-14.063 6.296-14.063 14.063 6.296 14.063 14.063 14.063z" fill="#2F2E41"/>
    <path d="M144.713 102.358l-.5 10.571 24.163 8.054s-1.259-13.34-.5-14.6l-23.163-4.025zM105.448 149.424l-2.265 8.809h10.571v-8.809h-8.306z" fill="#FFB9B9"/>
    <path d="M160.316 151.766l4.782 1.685 2.517-6.32-4.279-3.371-3.02 8.006z" fill="#A0616A"/>
    <path d="M168.792 140.797s7.131-.937 7.131 5.1 1.007 20.891-9.061 19.129c0 0-4.53.5-2.769-4.782 0 0 1.794-2.15 1.148-3.466-.646-1.316-4.42-2.323-3.917-3.078.503-.755 6.041-6.8 6.041-6.8l1.427-6.103z" fill="#2F2E41"/>
    <path d="M168.875 119.725l-24.666-8.557-1.51 6.041s-37-21.394-39.264-6.8a84.457 84.457 0 001.004 27.437l.252 12.585s6.292 1.51 9.313.252l.252-13.591s2.517-8.809 1.258-15.6c0 0 18.877 14.85 27.434 16.612 0 0-29.951 23.156-26.428 30.455 3.523 7.299 7.8 8.557 13.34 7.3 3.816-.867 20.9-14.644 31.152-23.125a29.076 29.076 0 0010.612-23.911 17.19 17.19 0 00-2.749-9.098z" fill="#2F2E41"/>
    <path d="M104.945 154.962s-.252-3.02-1.762-1.762-6.8 6.041-6.8 6.041-19.129 5.034-7.551 9.816a28.715 28.715 0 0015.6-2.014s12.864.369 12.6-2.836c-.264-3.205-3.286-8.557-3.286-8.557s-3.524 2.583-7.551-.94l-1.25.252z" fill="#2F2E41"/>
    <path d="M154.781 73.414a9.313 9.313 0 100-18.626 9.313 9.313 0 000 18.626z" fill="#FFB9B9"/>
    <path d="M162.331 64.604s1.51 7.551 4.279 9.313l-15.353 18.122-5.789-5.537 4.279-7.551s4.782-2.769 3.272-6.544l9.312-7.803zM167.868 74.672s11.075 2.265 12.333 9.564c1.258 7.299-1.258 20.639-1.258 20.639l-5.286 39.264s-.252 16.612-6.8 13.843c-6.548-2.769 1.762-15.353 1.762-15.353l2.265-24.666s1.007-20.891-1.007-23.407l-8.054-2.517s1.766-16.612 6.045-17.367z" fill="#FFB9B9"/>
    <path d="M149.746 78.95s-7.551-.252-12.333 5.789c-4.782 6.041-16.36 10.571-16.36 10.571l-28.945 11.326s-5.286-9.313-8.558-6.041c-3.272 3.272 6.042 11.577 10.32 10.577 4.278-1 30.2-8.809 30.2-8.809l20.639-9.313 5.037-14.1z" fill="#FFB9B9"/>
    <path d="M166.219 73.316s-9.678 12.933-13.956 12.68c-4.278-.251-1.4-7.9-1.4-7.9l-3.02.756s-4.14 7.9-4.644 8.4c0 0-6.041 9.816.755 12.08l.252 5.287s16.863-.755 24.162 3.02l1.51-13.088s-9.564-4.782-4.279-14.095c0 0 1.875-4.88 3.889-5.382l-3.269-1.758z" fill="#2F53EB"/>
    <path opacity=".1" d="M168.749 142.503l-38.509 28.19s38.761-22.905 38.509-28.19z" fill="#000"/>
    <path d="M155.286 53.169c-4.957 0-8.976 2.344-8.976 5.236a4.261 4.261 0 002.141 3.39l1.728-1.252-.47 1.962c.195.09.394.178.6.259l2.581-3.012v3.7c.792.127 1.592.19 2.394.19 4.957 0 8.976-2.344 8.976-5.236s-4.017-5.237-8.974-5.237zM173.673 54.836a4.189 4.189 0 100-8.377 4.189 4.189 0 000 8.377z" fill="#2F2E41"/>
    <path d="M169.185 48.852a4.185 4.185 0 013.74-4.164 4.191 4.191 0 00-4.646 4.164 4.19 4.19 0 004.646 4.164 4.187 4.187 0 01-3.74-4.164z" fill="#2F2E41"/>
    <path d="M169.484 50.647s-.651 2.992 3.415 4.189z" fill="#2F53EB"/>
    <path d="M164.47 64.981c.402 0 .727-.732.727-1.636 0-.904-.325-1.636-.727-1.636-.401 0-.727.732-.727 1.636 0 .904.326 1.636.727 1.636z" fill="#A0616A"/>
    <path d="M84.221 69.679l-11.036 2.674-.036.009-1.2 1.086-.345.312-.74-.134-1.31-.237.913-3.082.171-5.88-.628-3.6 3.482-2.4s6.79-.396 10.729 11.252z" fill="#D0CDE1"/>
    <path opacity=".1" d="M73.184 72.348c-.15.32.164.108-.007.437l-1.6.514-.716.323-1.31-.237.913-3.082.171-5.879-.628-3.6 3.482-2.4s3.738 5.3-.305 13.924z" fill="#000"/>
    <path d="M97.233 61.227s-14.5 6.735-20.375 7.762c-5.875 1.027-5.365 6.906-5.365 6.906l32.932-5.137s-1.14-5.307-7.192-9.53z" fill="#D0CDE1"/>
    <path d="M69.267 60.086a20.262 20.262 0 01-.285 13.7l3.253 1.484 1.256-1.484.029-.143-3.453-.314s2.854-7.648.514-12.956c-.001-.001-.515-1.143-1.314-.287z" fill="#2F53EB"/>
    <path d="M117.152 105.346c-12.842-2.854-24.8 3.053-24.8 3.053l-.033-.029-4.762-4.251-18.604-30.363 4.537.029c12.613-7.534 30.363-6.506 30.363-6.506 7.65 8.674 13.299 38.067 13.299 38.067z" fill="#2F53EB"/>
    <path opacity=".1" d="M92.321 108.37l-4.762-4.251-18.606-30.364 4.537.029s18.085 23.885 18.831 34.586z" fill="#000"/>
    <path d="M97.165 88.889l-.535-1.051a6.638 6.638 0 01-2.522.703 6.641 6.641 0 01-2.505-.302 6.65 6.65 0 01-3.11-2.157 6.627 6.627 0 01-1.426-3.644c-.03-.425-.019-.85.034-1.273.05-.419.14-.832.27-1.233a6.67 6.67 0 011.227-2.205 6.535 6.535 0 012.051-1.627 6.64 6.64 0 012.522-.703 6.608 6.608 0 012.505.303c.4.132.788.301 1.156.506a6.566 6.566 0 012.677 2.773c.17.337.312.688.422 1.05a6.52 6.52 0 01.288 2.217 6.607 6.607 0 01-.144 1.12 10.614 10.614 0 01-.976 2.854 10.633 10.633 0 01-1.933 2.674v-.005zM91.83 78.445a3.936 3.936 0 00-1.226.974 3.931 3.931 0 00-.733 1.324 3.996 3.996 0 00-.184 1.503 3.93 3.93 0 00.424 1.514 3.963 3.963 0 00.976 1.232 3.958 3.958 0 005.568-.477 3.914 3.914 0 00.736-1.329 3.98 3.98 0 00.184-1.502 3.923 3.923 0 00-.422-1.508 3.957 3.957 0 00-.977-1.232 3.95 3.95 0 00-2.065-.898 3.937 3.937 0 00-1.53.11c-.26.072-.513.169-.754.292l.003-.003zm3.366 6.605l-.156-.085a5.874 5.874 0 01-1.457-1.108l-.115-.119 1.682-.857.03.162c.11.604.123 1.222.04 1.83l-.022.176-.002.001zm-.786.22l-.313.047a3.392 3.392 0 01-2.316-.51l-.18-.117 1.347-.687.066.073c.335.385.716.726 1.136 1.016l.257.179.003-.002zm1.629-.936l-.203.103.007-.208c.01-.51-.043-1.02-.155-1.517l-.019-.096 1.348-.687-.011.214a3.408 3.408 0 01-.949 2.174l-.015.016-.003.001zm.906-3.005l-1.438.733-.049-.134a6.74 6.74 0 00-.312-.738 6.742 6.742 0 00-.414-.687l-.08-.118 1.439-.733.065.073c.19.214.351.45.483.704.127.255.223.525.285.803l.02.095.001.002zm-1.953.995l-1.89.963-.061-.087a5.873 5.873 0 01-.438-.711 5.881 5.881 0 01-.318-.772l-.033-.102 1.888-.962.061.088c.163.226.309.464.438.71.124.25.23.508.318.773l.034.1h.001zm-2.4 1.223l-1.438.733-.064-.073a3.632 3.632 0 01-.482-.705 3.376 3.376 0 01-.287-.802l-.02-.095 1.438-.733.05.133c.088.253.192.5.311.739.124.237.263.467.415.687l.079.118-.001-.002zm3.051-4.3l-1.348.688-.065-.073a6.137 6.137 0 00-1.136-1.016l-.26-.18.312-.048a3.458 3.458 0 011.207.047 3.368 3.368 0 011.114.467l.18.117-.004-.001zm-1.863.95l-1.682.857-.03-.162a5.855 5.855 0 01-.04-1.83l.022-.176.156.085c.54.29 1.032.665 1.457 1.108l.114.12.003-.002zm-2.197 1.12l-1.348.686.01-.214a3.388 3.388 0 01.948-2.173l.222-.225-.006.313c-.01.51.042 1.018.154 1.516l.02.095v.001z" fill="#fff"/>
  </g>
  <defs>
    <clipPath id="clip0">
      <path fill="#fff" d="M24 1h222.558v177.846H24z"/>
    </clipPath>
  </defs>
</svg>
